X: 78
T:Joys Of Quebec
% Nottingham Music Database
S:French Canadian, via PR
M:4/4
L:1/4
K:A
e|"A"e/2c/2c/2c/2 ce|e/2c/2c/2c/2 ce|"A"f/2A/2e/2A/2 d/2A/2c/2A/2|\
"E"d/2B/2B/2B/2 Bd|
d/2B/2B/2B/2 Bd|"E"d/2B/2B/2B/2 Bd| [1"E"ee g/2f/2e/2g/2|\
"A"f/2e/2d/2f/2 "E"ec/2d/2:|
 [2"E"ee/2e/2 "D"f/2e/2f/2g/2|"A"a3c/2d/2|:"A"ez"D"fz|"A"e3/2f/2 eA/2B/2|\
"A"cc/2c/2 "D"dd/2d/2|
"A"c3/2d/2 cA/2B/2|c/2B/2A GA|"E"B3/2c/2 BB/2c/2| [1"E"de g/2f/2e/2g/2|\
"A"f/2e/2d/2f/2 "E"ec/2d/2:|
 [2"E"de f/2e/2f/2g/2|"A"a/2f/2e/2c/2 A||


